!!!COM: Martinů, Bohuslav (Jan)
!!!OTL: Duo No. 2 for Violin and Alto
!!!OMV: I: Allegro
!!!example: 503
!!!work: Mau-97
**kern	**dynam	**kern	**dynam
*part2	*part2	*part1	*part1
*staff2	*	*staff1	*
*I"Viola	*	*I"Violin I	*
*I'Vla.	*	*I'Vln. I	*
*clefG2	*	*clefG2	*
*k[]	*	*k[]	*
*C:	*	*C:	*
*M6/8	*	*M6/8	*
*MM121	*	*MM121	*
=1	=	=	=
2.r	.	4a-X~	.
.	.	([8f	.
.	.	8fL]	.
.	.	8e-X)	.
.	.	[8a-J	]]
=2	=2	=2	=2
4cc~	p	4a-]	]
(8c	.	([8f	.
4.cc)	.	8fL]	.
.	.	8en)	.
.	.	[8a-XJ	.
=3	=3	=3	=3
4c	.	8a-]	.
.	.	(4f	.
(8ee-X	.	.	.
8ee-L)	.	8e-X)	.
8a-X	.	4a-X~	.
[8ffJ	.	.	.
=4	=4	=4	=4
8ff]	.	(4f	.
4cc~	.	.	.
.	.	8e-X)	.
(8c	<	4b-X	.
4cc)	.	.	.
.	.	[8a-X	<
=5	=5	=5	=5
8f	.	8a-L]	.
4a-X	[	(8cc	.
.	.	[8aa-XJ	[
4cc	.	8aa-])	.
.	.	4ff~	.
(8c	.	.	.
=6	=6	=6	=6
4e)	.	(8ee	.
.	.	4cc)	.
[8cc	.	.	.
8cc]	.	4c~	.
4c	.	.	.
.	.	([8B-X	.
=7	=7	=7	=7
!!linebreak:original
(4.dd-X	.	8B-L]	.
.	.	8A-X)	.
.	.	[8c~J	.
4b-X)	>	8c]	.
.	.	(4B-X	>
(8g	]]	.	.
=8	=8	=8	=8
4b-X)	]	8A-X)	.
.	.	4d-X~	]
[8g	.	.	.
8gL]	.	4c~	.
(8e	.	.	.
[8gJ	.	(8Bn	.
=9	=9	=9	=9
4g])	p	4en)	p
4G	.	([8e-X	.
.	.	8e-]	.
4g	.	4en)	.
*clefC3	*	*	*
=10	=10	=10	=10
!!linebreak:original
(8G	.	(8e-X	.
4g)	.	4en)	.
4G	.	(4e-X	.
[8g	.	[8en	.
=11	=11	=11	=11
8gL]	.	8eL])	.
(8g#X	<	(8f	<
[8aJ	.	[8f#XJ	.
8a])	.	8f#])	.
(4A	[[	(4fn	[[
=12	=12	=12	=12
4a)	[	4f#X)	[
(8A	.	(8fn	.
8a)	.	4f#X)	.
4b-X~	.	.	.
.	.	([8g	.
=13	=13	=13	=13
(8B-XL	<	8gL]	<
8Bn)	.	8a-X	.
([8bnJ	.	8gJ)	.
8bL]	.	(8a-L	.
8ccJ)	[	8anJ)	[
8r	.	8r	.
==	==	==	==
*-	*-	*-	*-
!!!CDT: 1890/12/08-1959/08/28
!!!CBL: Polička, Bohemia
!!!CDL: Liestal, Switzerland
!!!CNT: Czech
!!!AGN: Instrumental; Chamber
!!!MCN:
!!!MDT: 1951/01/05
!!!MGN:
!!!MLC: New York, New York, United States of America
!!!MPD: 1951
!!!MPN: Fuchs, J.; Fuchs, L.
!!!ODT: 1950
!!!PDT: 1964
!!!excerpt-start-measure:
!!!excerpt-end-measure:
!!!excerpt-start-time: 2:10
!!!excerpt-end-time: 2:35
!!!EEV: 2020/01/17
!!!system-decoration: [(s1,s2)]
!!!ONB: Converted from MusicXML on 2020/01/17
